packages/icons/web/file_small.svg

<svg width="24" height="24" viewBox="0 0 24 24" fill="none" xmlns="http://www.w3.org/2000/svg">
<path d="M12 5V10C12 10.5523 12.4477 11 13 11H18" stroke="#212933" stroke-width="2"/>
<path d="M6 6C6 5.44772 6.44772 5 7 5H12.5858C12.851 5 13.1054 5.10536 13.2929 5.29289L17.7071 9.70711C17.8946 9.89464 18 10.149 18 10.4142V18C18 18.5523 17.5523 19 17 19H7C6.44772 19 6 18.5523 6 18V6Z" stroke="#212933" stroke-width="2"/>
</svg>

<svg width="24" height="24" fill="none" xmlns="http://www.w3.org/2000/svg">
    <path d="M12 5v5a1 1 0 001 1h5" stroke="currentColor" stroke-width="2"/>
    <path d="M6 6a1 1 0 011-1h5.586a1 1 0 01.707.293l4.414 4.414a1 1 0 01.293.707V18a1 1 0 01-1 1H7a1 1 0 01-1-1V6z" stroke="currentColor" stroke-width="2"/>
</svg>
